!!!OTL: Die wiedergefundene Schwester (Suedeli - Ballade) Es reisen ihrer Herren alle dreie,
!!!ARE: Europa, Mitteleuropa, Deutschland / France, Lothringen, Hassenburg
!!!YOR: 4, S. 30
!!    1928 gedruckt in Heidelberg
!!!SCT: Q0072G
!!!YEM: Copyright 1995, estate of Helmut Schaffrath.
**kern
*ICvox
*Ivox
*M3/4
*k[f#]
*G:
{4d
=1
4g
4g
8g
8g
=2
4a
4a
8b
8b
=3
2.cc
=4
4g
4r}
{8b
8cc
=5
4.dd
8ee
4dd
=6
4a
4a
4dd
=7
4dd
4cc
4b
=8
4a
4r}
{8.dd
16cc
=9
4b
4a
4b
=10
4g
4g
4b
=11
4g
4a
4b
=12
4a
4r}
{4b
=13
4g
4g
4ee
=14
4.dd
8cc
8b
8dd
=15
8dd
8cc
4b
4a
=16
4g
4r}
{4b
=17
4g
4g
4ee
=18
4.dd
8cc
8b
8dd
=19
8dd
8cc
4b
4a
=20
4g
4r}
==
!!!AGN: Ballade, Entfuehrung, Adelige als Dienstmagd, Rueckkehr
!!!ONB: ESAC (Essen Associative Code) Database: BALLADE
!!!AMT: simple triple
!!!AIN: vox
!!!EED: Helmut Schaffrath
!!!EEV: 1.0
*-
